!!!OTL: Kronelied (3-9), S. 35
!!!id: P0980
**kern
*clefG2
*k[]
*d:
{4a
=1
4a
4a
4a
4g
=2
2a
4a}
=3
{4b
=4
4cc
4cc
4b
4b
=5
2a}
4r
=6
{4a
=7
4a
4a
4a
4g
=8
2a
4g}
=9
{4e
=10
4f
4f
4e
8e
8e
=11
2d}
4r
==
*-
!!!minrhy: 8
!!!meters: 4/4 ]  ZZ[4
!!!cut: Kronelied (3-9), S. 35
!!!reg: Lothringen
!!!trd: PINCK, Louis: Verklingende Weisen, Bd3, Metz 1933
!!!rhy1: X_  X_X_X_X_  X__X_   (x2)
!!!rhy2: X_  X_X_X_X_  X__0
!!!key: P0980  08  D 4/4 ]  ZZ[4
!!!mod: HEPTATONIK DORISCH]  AMBITUS[7b
!!!kad: 5541
!!!akz: 5555_7b65_5554_3b21_
!!!fot: 'a__b__aw_bs'
!!!for: 'a__a__a__b__
!!!fok: '-__\__\__\__
!! PHRAS[AUFTAKTIG]
!!!fkt: yyy
!! LOTH VKL
!! PR[25] 2K[14] 2G[11] 3K[0] 3G[11] 4A[4] 4Ü[0] 5A[0] 6K[0] 6G[0]
!! 7K[0] 7G[0] 8A[0] MEHR[0] SI[39] ABS[28] SR[25] SP[14]
!! ST[8] 2k[7] 2g[18] 3k[7] 3g[4] 4d[0] 4ü[0] 5d[0] 6k[0] 6g[0]
!! 7k[0] 7g[0] 8d[0] mehr[0] si[36] dm[+3] sr[25] sp[11]
!! 1F[7] 2F[83] 3F[10] 4F[0] LF[0] 2P[0] 3P[0] 4P[0] TRI[0] DF[3] AB[30]
!! TF[0] U3K[0] U3[3] U4[7] U4Ü[0] U5[17] U6K[0] U6[0] U7K[0] U7[10]
!! N1[31] N2K[0] N2[14] N3K[0] N3[17] N4[0] N4Ü[0] N5[0] N6K[0] N6[0]
!!!n7k: 0] N7[0] O1[0] O2K[0] O2[0] O3K[0] O3[0] HÖ[0
